!!!COM: Ulenberg, Caspar
!!!CDT: 1548/12/24-1617/02/16
!!!OPR: Die Psalmen Davids
!!!ONM: 21
!!!ONM-carmgen: 19
!!!OTL@@LA: Deus Deus meus respice
!!!OTL-incipit@@DE: Mein Got mein lieber trewer Got
**kern	**text
*Ivox	*
*clefC4	*
*k[]	*
*M2/1	*
*met(C|)	*
*MM180	*
=-	=-
*xywh-#130:217,549,700,371	*
1A	Mein
1A	Got/
=-	=-
1G	mein
2A	lie-
2B	-ber
=-	=-
1c	trew-
1B	-er
=-	=-
1A	Got/
1r	.
=-	=-
*xywh-#130:214,915,707,225	*
1B	Schaw
2c	her
2c	auff
=-	=-
2c	mich
2A	in
2d	mei-
2c	-ner
=-	=-
1B	not/
1r	.
=-	=-
*xywh-#130:217,1133,707,262	*
1A	Ach
2B	wa-
2c	-rum
=-	=-
2B	has-
2A	-tu
2G	die-
2E	-ser
=-	=-
1F	mas-
1E	-sen
=-	=-
*xywh-#131:110,138,701,291	*
1r	.
1E	In
=-	=-
2G	mei-
2G	-nen
2G	engs-
2A	-ten
=-	=-
2B	mich
2c	ver-
1B	-las-
=-	=-
1A	-sen?
1r	.
=-	=-
*xywh-#131:123,428,687,237	*
1A	Ich
1G	heu-
=-	=-
1F	-le
2E	fast
2E	für
=-	=-
2G	schwer-
2A	-er
1B	pein/
=-	=-
*xywh-#131:117,660,695,227	*
1r	.
1G	Aus
=-	=-
2A	hoch-
2c	-be-
2B	-trüb-
2A	-tem
=-	=-
2G	her-
2F	-tzen
1E	mein/
=-	=-
*xywh-#131:111,886,701,229	*
1r	.
1e	Doch
=-	=-
2e	mag
2e	mein
2A	seuff-
2A	-tzen
=-	=-
2c	nicht
2B	er-
1A	-win-
=-	=-
1G	-den
1r	.
=-	=-
*xywh-#131:111,1115,706,284	*
1c	Es
1B	ist
=-	=-
1e	vom
2d	heil
2c	zů-
=-	=-
2B	-weit
2A	da-
1B	-hin-
=-	=-
0All;	-den.
==	==
*-	*-
!!!RDF**kern: l = terminal long
!!!RDF**kern: i = editorial accidental
!!!AGN: Psalm
!!!YOR: https://mdz-nbn-resolving.de/details:bsb11116252
!!!YOO: München, Bayerische Staatsbibliothek
!!!URL-scan: https://www.digitale-sammlungen.de/de/view/bsb11116252?page=130
!!!IIIF: https://api.digitale-sammlungen.de/iiif/presentation/v2/bsb11116252/manifest
!!!EED: Wolfgang Drescher
!!!END: 2023/04/02
!!!ENC: Wolfgang Drescher
!!!EEV: 2023/04/02
!!!title: @{ONM}. @{OTL} / <i>@{OTL-incipit@@DE}</i>